libs/ui/packages/crypto-icons/src/svg/CC.svg

<svg width="24" height="24" viewBox="0 0 24 24" fill="none">
<path fill-rule="evenodd" clip-rule="evenodd" d="M10.5606 3.19851C11.1606 3.07851 11.7719 3.02676 12.3831 3.04401C12.7641 3.04401 13.1451 3.07851 13.5209 3.14676C14.2521 3.24726 14.9571 3.47976 15.6449 3.74076C16.1451 3.96426 16.6694 4.17426 17.0759 4.55376C17.1891 4.63626 17.1284 4.80126 17.0279 4.86651C16.7954 5.01576 16.5156 5.05851 16.2501 5.11701C15.0531 5.32251 13.8351 5.41476 12.6591 5.73351C12.1319 5.85201 11.6249 6.04551 11.1231 6.24576C10.1909 6.66276 9.33364 7.27551 8.71339 8.09451C8.59487 8.26779 8.48083 8.4441 8.37139 8.62326C8.27314 8.81451 8.17414 9.00576 8.09389 9.20601C8.03389 9.34926 7.97839 9.49401 7.92589 9.63951C7.82014 9.94926 7.76839 10.2725 7.68964 10.5905C7.66489 10.799 7.65064 11.009 7.60714 11.2153C7.57939 11.6878 7.59289 12.1603 7.59664 12.6328C7.59664 12.7903 7.63939 12.9448 7.64164 13.103C7.64389 13.2485 7.66414 13.3933 7.70314 13.5335C7.77814 13.9273 7.86964 14.3263 8.03689 14.6945C8.25364 15.2173 8.59114 15.707 9.07114 16.0183C9.46939 16.3138 9.96214 16.4398 10.4451 16.5148C11.0901 16.5988 11.7449 16.5223 12.3801 16.4068C12.7124 16.3468 13.0424 16.2718 13.3701 16.184C13.5779 16.1255 13.7916 16.0865 13.9971 16.0168C14.0759 16.0032 14.1557 15.9956 14.2356 15.9943C13.9784 16.2238 13.7196 16.4518 13.4286 16.637C12.4371 17.276 11.2844 17.609 10.1346 17.8235C9.61489 17.93 9.08614 17.993 8.56264 18.083C7.96639 18.1693 7.34839 18.2405 6.81064 18.533C6.65014 18.6455 6.52564 18.7985 6.41389 18.9575C6.38014 19.0265 6.31639 18.9575 6.27889 18.9328C6.15664 18.7925 5.99989 18.6898 5.86714 18.56C5.72553 18.4236 5.5865 18.2846 5.45014 18.143C5.23189 17.8888 5.00764 17.6383 4.81489 17.3645C4.43089 16.844 4.09114 16.2868 3.84214 15.6898L3.79864 15.6703C3.76714 15.4985 3.68014 15.347 3.62239 15.1843C3.48621 14.8277 3.37592 14.4617 3.29239 14.0893C3.25941 13.9755 3.2336 13.8598 3.21514 13.7428C3.17484 13.6112 3.15067 13.4752 3.14314 13.3378C3.06964 13.0153 3.08314 12.6823 3.03664 12.3568C3.03664 12.0853 3.01864 11.8115 3.05164 11.5408C3.08764 11.3158 3.07264 11.0855 3.11914 10.8613C3.16489 10.679 3.15589 10.4885 3.21364 10.3093C3.28569 9.90819 3.39105 9.51382 3.52864 9.13026C3.58264 8.98926 3.63139 8.84676 3.68164 8.70501C3.71164 8.63976 3.73639 8.57301 3.75664 8.50476L3.79639 8.45751C3.84445 8.31666 3.90651 8.18098 3.98164 8.05251C4.05632 7.89611 4.13765 7.74297 4.22539 7.59351C4.25089 7.54026 4.27939 7.48851 4.30939 7.43601C4.78189 6.69576 5.33389 5.99451 5.99839 5.41551C6.82271 4.68174 7.76929 4.09816 8.79514 3.69126C9.36549 3.46705 9.95734 3.30194 10.5614 3.19851H10.5606Z" fill="#36B0F3"/>
<path fill-rule="evenodd" clip-rule="evenodd" d="M17.4239 5.54524C17.5889 5.44924 17.7021 5.29399 17.8161 5.14624C18.7164 5.91593 19.4559 6.85571 19.9923 7.91171C20.5287 8.96771 20.8514 10.1192 20.942 11.3001C21.0325 12.4811 20.8892 13.6683 20.5201 14.7938C20.151 15.9192 19.5635 16.9608 18.7911 17.8587C17.4134 19.4772 15.4349 20.5767 13.3266 20.8685C12.3569 21.011 11.3691 20.9735 10.4001 20.8407C9.65764 20.7357 8.93164 20.5332 8.24239 20.237C7.86739 20.072 7.49464 19.8785 7.20139 19.586C7.12564 19.52 7.07764 19.4105 7.12789 19.3152C7.20289 19.199 7.33789 19.1412 7.46539 19.1C7.82914 18.995 8.20339 18.9335 8.57764 18.8757C9.25414 18.758 9.93739 18.6822 10.6086 18.5345C11.7239 18.2937 12.8391 17.9525 13.8036 17.327C14.4591 16.9085 15.0366 16.364 15.4619 15.7115C16.0724 14.7905 16.3544 13.6872 16.4219 12.5937C16.4556 11.78 16.4369 10.9587 16.2666 10.1592C16.1114 9.46924 15.8391 8.77399 15.3239 8.27149C14.9301 7.86724 14.3939 7.61599 13.8404 7.51999C12.9216 7.34824 11.9834 7.51399 11.0834 7.71649C10.6619 7.81624 10.2464 7.94149 9.82039 8.02399C10.4264 7.45324 11.1681 7.04524 11.9474 6.76624C12.3951 6.60049 12.8601 6.49024 13.3229 6.38149C14.3369 6.15349 15.3749 6.06649 16.3979 5.89099C16.7549 5.81599 17.1179 5.74399 17.4239 5.54524Z" fill="#36B0F3"/>
</svg>

<svg width="24" height="24" viewBox="0 0 24 24" fill="none"><path fill="#36b0f3" fill-rule="evenodd" d="M10.56 3.199c.6-.12 1.212-.172 1.823-.155q.573 0 1.138.103c.731.1 1.436.333 2.124.594.5.223 1.024.433 1.43.813.114.082.053.247-.047.313-.233.149-.512.192-.778.25-1.197.206-2.415.298-3.59.617-.528.118-1.035.312-1.537.512-.932.417-1.79 1.03-2.41 1.849q-.177.26-.342.528c-.098.192-.197.383-.277.583q-.09.215-.168.434c-.106.31-.158.633-.236.95-.025.209-.04.419-.083.625-.028.473-.014.945-.01 1.418 0 .157.042.312.045.47q.003.22.061.43c.075.394.167.793.334 1.162.217.522.554 1.012 1.034 1.323.398.296.891.422 1.374.497.645.084 1.3.007 1.935-.108q.498-.09.99-.223c.208-.059.422-.098.627-.167q.119-.02.239-.023c-.258.23-.516.458-.807.643-.992.639-2.145.972-3.294 1.186-.52.107-1.049.17-1.572.26-.597.086-1.215.158-1.752.45-.16.112-.285.265-.397.424-.034.07-.098 0-.135-.024-.122-.14-.28-.243-.412-.373a16 16 0 0 1-.417-.417c-.218-.254-.442-.505-.635-.779a8 8 0 0 1-.973-1.674l-.043-.02c-.032-.171-.119-.323-.177-.486a8 8 0 0 1-.33-1.095 3 3 0 0 1-.077-.346 1.7 1.7 0 0 1-.072-.405c-.073-.323-.06-.656-.106-.981 0-.272-.018-.545.015-.816.036-.225.02-.456.067-.68.046-.182.037-.373.095-.552a7.3 7.3 0 0 1 .315-1.179c.054-.14.102-.283.153-.425q.044-.098.075-.2l.04-.047q.071-.212.185-.405a6 6 0 0 1 .243-.46q.039-.079.084-.157c.473-.74 1.025-1.441 1.69-2.02A9.4 9.4 0 0 1 8.794 3.69a9 9 0 0 1 1.766-.492" clip-rule="evenodd"/><path fill="#36b0f3" fill-rule="evenodd" d="M17.424 5.545c.165-.096.278-.251.392-.399a9 9 0 0 1 .975 12.713 8.85 8.85 0 0 1-5.464 3.01c-.97.142-1.958.105-2.927-.028a8.5 8.5 0 0 1-2.158-.604c-.375-.165-.747-.358-1.04-.651-.076-.066-.124-.175-.074-.27.075-.117.21-.175.337-.216a9 9 0 0 1 1.113-.224c.676-.118 1.36-.194 2.03-.341 1.116-.241 2.231-.582 3.196-1.208a5.5 5.5 0 0 0 1.658-1.616c.61-.92.892-2.024.96-3.117.034-.814.015-1.635-.155-2.435-.156-.69-.428-1.385-.943-1.888-.394-.404-.93-.655-1.484-.751-.918-.172-1.857-.006-2.757.196-.421.1-.837.225-1.263.308.606-.57 1.348-.979 2.127-1.258.448-.166.913-.276 1.376-.385 1.014-.228 2.052-.315 3.075-.49.357-.075.72-.147 1.026-.346" clip-rule="evenodd"/></svg>
